Yaru++/mimetypes/48/text-x-gettext-translation.svg

<svg height="48" viewBox="0 0 12.7 12.7" width="48" xmlns="http://www.w3.org/2000/svg" xmlns:xlink="http://www.w3.org/1999/xlink"><linearGradient id="a" gradientUnits="userSpaceOnUse" x1="6.350383" x2="6.350383" y1=".396869" y2="12.038536"><stop offset="0" stop-color="#fff"/><stop offset=".125" stop-color="#fff" stop-opacity=".098039"/><stop offset=".92500001" stop-color="#fff" stop-opacity=".098039"/><stop offset="1" stop-color="#fff" stop-opacity=".498039"/></linearGradient><linearGradient id="b" gradientTransform="matrix(0 -.02997233 .02997147 0 -3.039659 13.626036)" gradientUnits="userSpaceOnUse" x1="459.03448" x2="35.310345" y1="419.23337" y2="207.36522"><stop offset="0" stop-color="#f2f2f2"/><stop offset="1" stop-color="#f9f9f9"/></linearGradient><path d="m4.162403.39686933c-.5881423-.0089588-1.0513696.0135414-1.4324701.0775147-.3811032.063972-.6929569.1839645-.9213929.411861-.2284333.22789667-.3490013.53961007-.4123769.92087407-.0633756.3812644-.0757476.845434-.0728636 1.4350545v3.2401124 3.2416623c-.00286.5887147.00955 1.0526497.072864 1.4335037.063376.381265.1839436.692978.4123769.920875.228436.227896.5402897.34789.9213929.411861.3811032.06397.844259.07752 1.4324701.07752h4.3759596c.5882111 0 1.0511261-.01352 1.4314382-.07752.3803118-.064.6912128-.184399.9188048-.412377.227595-.227978.347451-.53947.411345-.920359.06389-.380886.07752-.844114.07752-1.4335037v-3.2416623-3.175l-2.8391084-2.84375407z" opacity=".1"/><path d="m4.1625644.39686933c-2.334731 0-2.5859449.2398051-2.5745017 2.57925887v3.2415745 3.2415746c-.011456 2.3394537.2397707 2.5792587 2.5745017 2.5792587h4.375994c2.3347306 0 2.5745016-.239779 2.5745016-2.5792587v-3.2415746l-.000177-3.175-2.6458335-2.64583337z" fill="none" opacity=".2" stroke="#000" stroke-width=".529167"/><path d="m4.1625644.39686933c-2.334731 0-2.5859449.2398051-2.5745017 2.57925887v3.2415745 3.2415746c-.011456 2.3394537.2397707 2.5792587 2.5745017 2.5792587h4.375994c2.3347306 0 2.5745016-.239779 2.5745016-2.5792587v-3.2415746l-.000177-3.175-2.6458335-2.64583337z" fill="url(#b)"/><path d="m3.5722604 7.01145h3.175c.2198714 0 .396875.1770065.396875.396875v3.175c0 .219869-.1770036.396878-.396875.396878h-3.175c-.2198687 0-.396875-.177009-.396875-.396878v-3.175c0-.2198685.1770063-.396875.396875-.396875z" opacity=".2" stroke-width=".1982"/><path d="m3.5722604 6.7468677h3.175c.2198714 0 .396875.1770066.396875.396875v3.1750013c0 .219866-.1770036.396875-.396875.396875h-3.175c-.2198687 0-.396875-.177009-.396875-.396875v-3.1750013c0-.2198684.1770063-.396875.396875-.396875z" fill="#dedede" stroke-width=".1982"/><path d="m6.0750283 10.186453c-.0475986-.125993-.092382-.2491847-.1343898-.3695767-.0420027-.123193-.0853917-.237692-.1301936-.363684h-1.3187151l-.2645833.7332607h-.4241721c.1119876-.3079817.2169848-.5921647.3149759-.8525477.0979938-.263182.1931908-.512366.285586-.747552.0951918-.2351853.1889866-.459171.2813817-.6719571.0923819-.2155867.1889866-.4283728.2897823-.6383602h.3737795c.1007877.2099874.1973792.4227735.2897769.6383602.092382.2127861.1847877.4367718.2771802.6719571.095194.235186.1917912.48437.2897849.747552.097994.260383.2029857.544566.3149785.8525477zm-.3821748-1.0671527c-.0895958-.243585-.1791917-.490951-.2687849-.7177345-.086786-.2295855-.1777868-.4493723-.2729812-.6593588-.0979937.2099865-.1917859.4297733-.2813817.6593588-.0867913.2267835-.1735879.4741495-.2603818.7177345z" fill="#77767b"/><path d="m5.6889271 4.1010334h3.175c.2198714 0 .396875.1770065.396875.396875v3.175c0 .2198687-.1770036.3968776-.396875.3968776h-3.175c-.2198688 0-.396875-.1770089-.396875-.3968776v-3.175c0-.2198685.1770062-.396875.396875-.396875z" opacity=".2" stroke-width=".1982"/><path d="m5.6889245 3.8364513c-.2198714 0-.396875.1770063-.396875.396875v3.1750006c0 .2198685.1770036.3968758.396875.3968758h3.175c.2198713 0 .396875-.1770073.396875-.3968758v-3.1750006c0-.2198687-.1770037-.396875-.396875-.396875z" fill="#44a5f3" stroke-width=".1982"/><g fill="#fff"><path d="m7.1373171 4.3656193v.4604983h-1.2279947v.3069987h.5079418c.1827.4716037.4070905.8715455.671449 1.1979392-.3075702.3185649-.6635645.5326745-1.0686495.6501243l.085516.2948562c.4501594-.1305176.8459788-.3711821 1.1852354-.7176545.3392594.3464724.7350787.5871369 1.1852381.7176545l.0855134-.2948562c-.4050745-.1174498-.7610714-.3315594-1.0686415-.6501243.2643584-.3263937.4887489-.7263361.6714463-1.1979392h.5079444v-.3069987h-1.228v-.4604983zm-.3897048.767497h1.0864109c-.1558528.3794422-.3368966.6999338-.5432054.964805-.2063115-.2648712-.3873553-.5853628-.5432055-.964805z"/><path d="m1.5878828 6.2177027v3.2416626c-.011456 2.3394527.2397892 2.5791707 2.5745202 2.5791707h4.3759596c2.3347304 0 2.5745204-.239691 2.5745204-2.5791707v-3.2416626z" opacity=".2"/><path d="m6.3503828.39686933v11.64166667h2.1879798c2.3347304 0 2.5745204-.239691 2.5745204-2.5791707v-3.2416626-3.175l-2.6458335-2.64583337z" opacity=".1"/></g><path d="m4.162403.39686933c-2.334731 0-2.5859634.239717-2.5745202 2.57917077v3.2416626 3.2416626c-.011456 2.3394527.2397892 2.5791707 2.5745202 2.5791707h4.3759596c2.3347304 0 2.5745204-.239691 2.5745204-2.5791707v-3.2416626-3.175h-.264584v3.175 3.2416626c0 .5803497-.01625 1.0241217-.07028 1.3461697-.05402.322051-.139877.509149-.264067.633556-.12419.124394-.310716.21051-.6320021.264583-.3212889.05406-.7644342.07028-1.3435886.07028h-4.3759583c-.5791544 0-1.0228501-.01619-1.3451391-.07028-.3222863-.054105-.5103203-.140097-.6351031-.264583-.1247802-.124495-.2105978-.311367-.2640648-.633037-.05347-.32167-.068472-.76555-.06563-1.3456557v-.000529-3.2421666-3.2421793-.0005292c-.0028309-.5801064.012171-1.0239838.06563-1.3456544.0534697-.3216707.1392846-.5085499.2640648-.63303627.1247801-.1244865.3133354-.210484.6356217-.2645834.3222863-.0540744.7654661-.0702675 1.3446205-.0702675h4.3046465v-.2645833z" fill="url(#a)" opacity=".4"/><path d="m11.112883 3.307286v-.2645833l-2.6458335-2.64583337h-.2645834v1.11364557.04267.022918c0 1.506003.2016019 1.7382252 1.7110604 1.7308441z" opacity=".2"/><path d="m11.112883 3.042364-2.6458335-2.64549517v.98132417.04267.022918c0 1.5060031.069406 1.6059637 1.5788645 1.5985826z" fill="#faf8f6"/></svg>

<?xml version="1.0" encoding="UTF-8" standalone="no"?>
<svg
   xmlns:dc="http://purl.org/dc/elements/1.1/"
   xmlns:cc="http://creativecommons.org/ns#"
   xmlns:rdf="http://www.w3.org/1999/02/22-rdf-syntax-ns#"
   xmlns:svg="http://www.w3.org/2000/svg"
   xmlns="http://www.w3.org/2000/svg"
   xmlns:xlink="http://www.w3.org/1999/xlink"
   xmlns:sodipodi="http://sodipodi.sourceforge.net/DTD/sodipodi-0.dtd"
   xmlns:inkscape="http://www.inkscape.org/namespaces/inkscape"
   height="48"
   viewBox="0 0 12.7 12.7"
   width="48"
   version="1.1"
   id="svg51"
   sodipodi:docname="text-x-gettext-translation.svg"
   inkscape:version="0.92.5 (2060ec1f9f, 2020-04-08)">
  <metadata
     id="metadata57">
    <rdf:RDF>
      <cc:Work
         rdf:about="">
        <dc:format>image/svg+xml</dc:format>
        <dc:type
           rdf:resource="http://purl.org/dc/dcmitype/StillImage" />
      </cc:Work>
    </rdf:RDF>
  </metadata>
  <defs
     id="defs55">
    <linearGradient
       gradientTransform="matrix(0.26458333,0,0,0.26458333,-84.666283,-16.007297)"
       inkscape:collect="always"
       xlink:href="#linearGradient927"
       id="linearGradient1004"
       x1="344"
       y1="62"
       x2="344"
       y2="106"
       gradientUnits="userSpaceOnUse" />
    <linearGradient
       inkscape:collect="always"
       id="linearGradient927">
      <stop
         style="stop-color:#ffffff;stop-opacity:1;"
         offset="0"
         id="stop923" />
      <stop
         id="stop933"
         offset="0.125"
         style="stop-color:#ffffff;stop-opacity:0.09803922" />
      <stop
         id="stop931"
         offset="0.92500001"
         style="stop-color:#ffffff;stop-opacity:0.09803922" />
      <stop
         style="stop-color:#ffffff;stop-opacity:0.49803922"
         offset="1"
         id="stop925" />
    </linearGradient>
    <linearGradient
       inkscape:collect="always"
       xlink:href="#linearGradient4338"
       id="linearGradient1024"
       gradientUnits="userSpaceOnUse"
       gradientTransform="matrix(0,-0.02997233,0.02997147,0,-3.0396585,13.626036)"
       x1="459.03448"
       y1="419.23337"
       x2="35.310345"
       y2="207.36522" />
    <linearGradient
       inkscape:collect="always"
       id="linearGradient4338">
      <stop
         style="stop-color:#f2f2f2;stop-opacity:1"
         offset="0"
         id="stop4340" />
      <stop
         style="stop-color:#f9f9f9;stop-opacity:1"
         offset="1"
         id="stop4342" />
    </linearGradient>
  </defs>
  <sodipodi:namedview
     pagecolor="#ffffff"
     bordercolor="#666666"
     borderopacity="1"
     objecttolerance="10"
     gridtolerance="10"
     guidetolerance="10"
     inkscape:pageopacity="0"
     inkscape:pageshadow="2"
     inkscape:window-width="834"
     inkscape:window-height="480"
     id="namedview53"
     showgrid="false"
     inkscape:zoom="4.9166667"
     inkscape:cx="24"
     inkscape:cy="24"
     inkscape:window-x="0"
     inkscape:window-y="28"
     inkscape:window-maximized="0"
     inkscape:current-layer="svg51" />
  <linearGradient
     id="a"
     gradientUnits="userSpaceOnUse"
     x1="344"
     x2="344"
     y1="62"
     y2="106">
    <stop
       offset="0"
       stop-color="#fff"
       id="stop2" />
    <stop
       offset=".125"
       stop-color="#fff"
       stop-opacity=".098039"
       id="stop4" />
    <stop
       offset=".92500001"
       stop-color="#fff"
       stop-opacity=".098039"
       id="stop6" />
    <stop
       offset="1"
       stop-color="#fff"
       stop-opacity=".498039"
       id="stop8" />
  </linearGradient>
  <clipPath
     id="b">
    <path
       d="m335.73108 62c-8.82418 0-9.77365.90635-9.7304 9.74838v12.25162 12.25162c-.0433 8.84203.90622 9.74838 9.7304 9.74838h16.53919c8.82418 0 9.7304-.90625 9.7304-9.74838v-12.25162-12.25162c0-8.84213-.90622-9.74838-9.7304-9.74838z"
       id="path11" />
  </clipPath>
  <filter
     id="c"
     color-interpolation-filters="sRGB"
     height="1.12"
     width="1.12"
     x="-.06"
     y="-.06">
    <feGaussianBlur
       stdDeviation=".5"
       id="feGaussianBlur14" />
  </filter>
  <filter
     id="d"
     color-interpolation-filters="sRGB"
     height="1.072"
     width="1.072"
     x="-.036"
     y="-.036">
    <feGaussianBlur
       stdDeviation=".3"
       id="feGaussianBlur17" />
  </filter>
  <linearGradient
     id="e"
     gradientTransform="matrix(0 -.02997233 .02997147 0 -3.039659 297.92607)"
     gradientUnits="userSpaceOnUse"
     x1="459.03448"
     x2="35.310345"
     y1="419.23337"
     y2="207.36522">
    <stop
       offset="0"
       stop-color="#f2f2f2"
       id="stop20" />
    <stop
       offset="1"
       stop-color="#f9f9f9"
       id="stop22" />
  </linearGradient>
  <path
     style="color:#000000;font-style:normal;font-variant:normal;font-weight:normal;font-stretch:normal;font-size:medium;line-height:normal;font-family:sans-serif;font-variant-ligatures:normal;font-variant-position:normal;font-variant-caps:normal;font-variant-numeric:normal;font-variant-alternates:normal;font-feature-settings:normal;text-indent:0;text-align:start;text-decoration:none;text-decoration-line:none;text-decoration-style:solid;text-decoration-color:#000000;letter-spacing:normal;word-spacing:normal;text-transform:none;writing-mode:lr-tb;direction:ltr;text-orientation:mixed;dominant-baseline:auto;baseline-shift:baseline;text-anchor:start;white-space:normal;shape-padding:0;clip-rule:nonzero;display:inline;overflow:visible;visibility:visible;opacity:0.1;isolation:auto;mix-blend-mode:normal;color-interpolation:sRGB;color-interpolation-filters:linearRGB;solid-color:#000000;solid-opacity:1;vector-effect:none;fill:#000000;fill-opacity:1;fill-rule:nonzero;stroke:none;stroke-width:0.52916664;stroke-linecap:butt;stroke-linejoin:miter;stroke-miterlimit:4;stroke-dasharray:none;stroke-dashoffset:0;stroke-opacity:1;marker:none;color-rendering:auto;image-rendering:auto;shape-rendering:auto;text-rendering:auto;enable-background:accumulate"
     d="M 4.162403,0.39686933 C 3.5742607,0.38791053 3.1110334,0.41041073 2.7299329,0.47438403 2.3488297,0.53835603 2.036976,0.65834853 1.80854,0.88624503 1.5801067,1.1141417 1.4595387,1.4258551 1.3961631,1.8071191 1.3327875,2.1883835 1.3204155,2.6525531 1.3232995,3.2421736 V 6.482286 9.7239483 c -0.00286,0.5887147 0.00955,1.0526497 0.072864,1.4335037 0.063376,0.381265 0.1839436,0.692978 0.4123769,0.920875 0.228436,0.227896 0.5402897,0.34789 0.9213929,0.411861 0.3811032,0.06397 0.844259,0.07752 1.4324701,0.07752 H 8.538363 c 0.5882111,0 1.0511261,-0.01352 1.4314382,-0.07752 0.3803118,-0.064 0.6912128,-0.184399 0.9188048,-0.412377 0.227595,-0.227978 0.347451,-0.53947 0.411345,-0.920359 0.06389,-0.380886 0.07752,-0.844114 0.07752,-1.4335037 V 6.482286 3.307286 L 8.5383626,0.46353193 Z"
     id="path1020"
     inkscape:connector-curvature="0"
     sodipodi:nodetypes="sccsccccccsscccscccs" />
  <path
     style="color:#000000;display:inline;overflow:visible;visibility:visible;opacity:0.2;fill:none;fill-opacity:1;fill-rule:nonzero;stroke:#000000;stroke-width:0.52916664;stroke-miterlimit:4;stroke-dasharray:none;stroke-opacity:1;marker:none;enable-background:accumulate"
     d="m 4.1625644,0.39686933 c -2.334731,0 -2.5859449,0.2398051 -2.5745017,2.57925887 v 3.2415745 3.2415746 c -0.011456,2.3394537 0.2397707,2.5792587 2.5745017,2.5792587 h 4.375994 c 2.3347306,0 2.5745016,-0.239779 2.5745016,-2.5792587 V 6.2177027 l -1.77e-4,-3.175 -2.6458335,-2.64583337 z"
     id="path958"
     inkscape:connector-curvature="0"
     sodipodi:nodetypes="scccssscccs" />
  <path
     style="color:#000000;display:inline;overflow:visible;visibility:visible;fill:url(#linearGradient1024);fill-opacity:1;fill-rule:nonzero;stroke:none;stroke-width:0.26458332;marker:none;enable-background:accumulate"
     d="m 4.1625644,0.39686933 c -2.334731,0 -2.5859449,0.2398051 -2.5745017,2.57925887 v 3.2415745 3.2415746 c -0.011456,2.3394537 0.2397707,2.5792587 2.5745017,2.5792587 h 4.375994 c 2.3347306,0 2.5745016,-0.239779 2.5745016,-2.5792587 V 6.2177027 l -1.77e-4,-3.175 -2.6458335,-2.64583337 z"
     id="path964"
     inkscape:connector-curvature="0"
     sodipodi:nodetypes="scccssscccs" />
  <path
     id="path27-5-7"
     d="m 3.5722604,7.01145 h 3.175 c 0.2198714,0 0.396875,0.1770065 0.396875,0.396875 v 3.175 c 0,0.219869 -0.1770036,0.396878 -0.396875,0.396878 h -3.175 c -0.2198687,0 -0.396875,-0.177009 -0.396875,-0.396878 v -3.175 c 0,-0.2198685 0.1770063,-0.396875 0.396875,-0.396875 z"
     inkscape:connector-curvature="0"
     style="display:inline;opacity:0.2;fill:#000000;fill-opacity:1;stroke-width:0.19819954;enable-background:new" />
  <path
     id="path27-5"
     d="m 3.5722604,6.7468677 h 3.175 c 0.2198714,0 0.396875,0.1770066 0.396875,0.396875 v 3.1750013 c 0,0.219866 -0.1770036,0.396875 -0.396875,0.396875 h -3.175 c -0.2198687,0 -0.396875,-0.177009 -0.396875,-0.396875 V 7.1437427 c 0,-0.2198684 0.1770063,-0.396875 0.396875,-0.396875 z"
     inkscape:connector-curvature="0"
     style="display:inline;fill:#dedede;fill-opacity:1;stroke-width:0.19819954;enable-background:new" />
  <path
     d="M 6.0750283,10.186453 C 6.0274297,10.06046 5.9826463,9.9372683 5.9406385,9.8168763 5.8986358,9.6936833 5.8552468,9.5791843 5.8104449,9.4531923 H 4.4917298 L 4.2271465,10.186453 H 3.8029744 C 3.914962,9.8784713 4.0199592,9.5942883 4.1179503,9.3339053 4.2159441,9.0707233 4.3111411,8.8215393 4.4035363,8.5863533 4.4987281,8.351168 4.5925229,8.1271823 4.684918,7.9143962 4.7772999,7.6988095 4.8739046,7.4860234 4.9747003,7.276036 h 0.3737795 c 0.1007877,0.2099874 0.1973792,0.4227735 0.2897769,0.6383602 0.092382,0.2127861 0.1847877,0.4367718 0.2771802,0.6719571 0.095194,0.235186 0.1917912,0.48437 0.2897849,0.747552 0.097994,0.260383 0.2029857,0.544566 0.3149785,0.8525477 z M 5.6928535,9.1193003 C 5.6032577,8.8757153 5.5136618,8.6283493 5.4240686,8.4015658 5.3372826,8.1719803 5.2462818,7.9521935 5.1510874,7.742207 5.0530937,7.9521935 4.9593015,8.1719803 4.8697057,8.4015658 4.7829144,8.6283493 4.6961178,8.8757153 4.6093239,9.1193003 Z"
     style="font-style:normal;font-variant:normal;font-weight:normal;font-stretch:normal;font-size:medium;line-height:125%;font-family:Ubuntu;-inkscape-font-specification:Ubuntu;text-align:center;letter-spacing:0px;word-spacing:0px;text-anchor:middle;display:inline;fill:#77767b;fill-opacity:1;stroke:none;stroke-width:0.00416658px;stroke-linecap:butt;stroke-linejoin:miter;stroke-opacity:1;enable-background:new"
     id="path36316-1"
     inkscape:connector-curvature="0"
     sodipodi:nodetypes="cccccccccccccccccccccc" />
  <path
     id="path27-5-7-2"
     d="m 5.6889271,4.1010334 h 3.175 c 0.2198714,0 0.396875,0.1770065 0.396875,0.396875 v 3.175 c 0,0.2198687 -0.1770036,0.3968776 -0.396875,0.3968776 h -3.175 c -0.2198688,0 -0.396875,-0.1770089 -0.396875,-0.3968776 v -3.175 c 0,-0.2198685 0.1770062,-0.396875 0.396875,-0.396875 z"
     inkscape:connector-curvature="0"
     style="display:inline;opacity:0.2;fill:#000000;fill-opacity:1;stroke-width:0.19819954;enable-background:new" />
  <path
     id="path33-2"
     d="m 5.6889245,3.8364513 c -0.2198714,0 -0.396875,0.1770063 -0.396875,0.396875 v 3.1750006 c 0,0.2198685 0.1770036,0.3968758 0.396875,0.3968758 h 3.175 c 0.2198713,0 0.396875,-0.1770073 0.396875,-0.3968758 V 4.2333263 c 0,-0.2198687 -0.1770037,-0.396875 -0.396875,-0.396875 z"
     inkscape:connector-curvature="0"
     style="color:#000000;display:inline;fill:#44a5f3;stroke-width:0.19819954;enable-background:new" />
  <path
     sodipodi:nodetypes="cccccccccccccccccccccc"
     inkscape:connector-curvature="0"
     id="rect36292-9"
     d="M 7.1373171,4.3656193 V 4.8261176 H 5.9093224 V 5.1331163 H 6.4172642 C 6.5999642,5.60472 6.8243547,6.0046618 7.0887132,6.3310555 6.781143,6.6496204 6.4251487,6.86373 6.0200637,6.9811798 L 6.1055797,7.276036 C 6.5557391,7.1455184 6.9515585,6.9048539 7.2908151,6.5583815 7.6300745,6.9048539 8.0258938,7.1455184 8.4760532,7.276036 L 8.5615666,6.9811798 C 8.1564921,6.86373 7.8004952,6.6496204 7.4929251,6.3310555 7.7572835,6.0046618 7.981674,5.6047194 8.1643714,5.1331163 H 8.6723158 V 4.8261176 h -1.228 V 4.3656193 Z M 6.7476123,5.1331163 H 7.8340232 C 7.6781704,5.5125585 7.4971266,5.8330501 7.2908178,6.0979213 7.0845063,5.8330501 6.9034625,5.5125585 6.7476123,5.1331163 Z"
     style="display:inline;opacity:1;fill:#ffffff;fill-opacity:1;stroke:none;stroke-width:0.14429723;stroke-linecap:round;stroke-linejoin:miter;stroke-miterlimit:4;stroke-dasharray:none;stroke-dashoffset:0;stroke-opacity:1;marker:none;enable-background:new" />
  <path
     style="color:#000000;display:inline;overflow:visible;visibility:visible;opacity:0.2;fill:#ffffff;fill-opacity:1;fill-rule:nonzero;stroke:none;stroke-width:0.26458332;marker:none;enable-background:accumulate"
     d="M 1.5878828,6.2177027 V 9.4593653 C 1.5764268,11.798818 1.827672,12.038536 4.162403,12.038536 h 4.3759596 c 2.3347304,0 2.5745204,-0.239691 2.5745204,-2.5791707 V 6.2177027 Z"
     id="path1006"
     inkscape:connector-curvature="0" />
  <path
     style="color:#000000;display:inline;overflow:visible;visibility:visible;opacity:0.1;fill:#ffffff;fill-opacity:1;fill-rule:nonzero;stroke:none;stroke-width:0.26458332;marker:none;enable-background:accumulate"
     d="M 6.3503828,0.39686933 V 12.038536 h 2.1879798 c 2.3347304,0 2.5745204,-0.239691 2.5745204,-2.5791707 v -3.2416626 -3.175 L 8.4670495,0.39686933 Z"
     id="path1013"
     inkscape:connector-curvature="0"
     sodipodi:nodetypes="ccsscccc" />
  <path
     style="color:#000000;font-style:normal;font-variant:normal;font-weight:normal;font-stretch:normal;font-size:medium;line-height:normal;font-family:sans-serif;font-variant-ligatures:normal;font-variant-position:normal;font-variant-caps:normal;font-variant-numeric:normal;font-variant-alternates:normal;font-feature-settings:normal;text-indent:0;text-align:start;text-decoration:none;text-decoration-line:none;text-decoration-style:solid;text-decoration-color:#000000;letter-spacing:normal;word-spacing:normal;text-transform:none;writing-mode:lr-tb;direction:ltr;text-orientation:mixed;dominant-baseline:auto;baseline-shift:baseline;text-anchor:start;white-space:normal;shape-padding:0;clip-rule:nonzero;display:inline;overflow:visible;visibility:visible;opacity:0.4;isolation:auto;mix-blend-mode:normal;color-interpolation:sRGB;color-interpolation-filters:linearRGB;solid-color:#000000;solid-opacity:1;vector-effect:none;fill:url(#linearGradient1004);fill-opacity:1;fill-rule:nonzero;stroke:none;stroke-width:0.52916664;stroke-linecap:butt;stroke-linejoin:miter;stroke-miterlimit:4;stroke-dasharray:none;stroke-dashoffset:0;stroke-opacity:1;marker:none;color-rendering:auto;image-rendering:auto;shape-rendering:auto;text-rendering:auto;enable-background:accumulate"
     clip-path="none"
     d="m 4.162403,0.39686933 c -2.334731,0 -2.5859634,0.239717 -2.5745202,2.57917077 V 6.2177027 9.4593653 C 1.5764268,11.798818 1.827672,12.038536 4.162403,12.038536 h 4.3759596 c 2.3347304,0 2.5745204,-0.239691 2.5745204,-2.5791707 v -3.2416626 -3.175 h -0.264584 v 3.175 3.2416626 c 0,0.5803497 -0.01625,1.0241217 -0.07028,1.3461697 -0.05402,0.322051 -0.139877,0.509149 -0.264067,0.633556 -0.12419,0.124394 -0.310716,0.21051 -0.6320021,0.264583 -0.3212889,0.05406 -0.7644342,0.07028 -1.3435886,0.07028 H 4.162403 c -0.5791544,0 -1.0228501,-0.01619 -1.3451391,-0.07028 C 2.4949776,11.649569 2.3069436,11.563577 2.1821608,11.439091 2.0573806,11.314596 1.971563,11.127724 1.918096,10.806054 1.864626,10.484384 1.849624,10.040504 1.852466,9.4603983 V 9.4598693 6.2177027 2.9755234 2.9749942 C 1.8496351,2.3948878 1.864637,1.9510104 1.918096,1.6293398 1.9715657,1.3076691 2.0573806,1.1207899 2.1821608,0.99630353 2.3069409,0.87181703 2.4954962,0.78581953 2.8177825,0.73172013 3.1400688,0.67764573 3.5832486,0.66145263 4.162403,0.66145263 h 4.3046465 v -0.2645833 z"
     id="path990"
     inkscape:connector-curvature="0" />
  <path
     inkscape:connector-curvature="0"
     style="color:#000000;display:inline;overflow:visible;visibility:visible;opacity:0.2;fill:#000000;fill-opacity:1;fill-rule:nonzero;stroke:none;stroke-width:0.06615189;marker:none;enable-background:accumulate"
     d="M 11.112883,3.307286 V 3.0427027 L 8.4670495,0.39686933 H 8.2024661 v 1.11364557 0.04267 0.022918 c 0,1.506003 0.2016019,1.7382252 1.7110604,1.7308441 z"
     id="rect4158-0-3-62-2"
     sodipodi:nodetypes="ccccccscc" />
  <path
     inkscape:connector-curvature="0"
     style="color:#000000;display:inline;overflow:visible;visibility:visible;fill:#faf8f6;fill-opacity:1;fill-rule:nonzero;stroke:none;stroke-width:0.06615189;marker:none;enable-background:accumulate"
     d="M 11.112883,3.042364 8.4670495,0.39686883 V 1.378193 1.420863 1.443781 c 0,1.5060031 0.069406,1.6059637 1.5788645,1.5985826 z"
     id="rect4158-0-3-62"
     sodipodi:nodetypes="ccccscc" />
</svg>
